src/assets/icons/calculator.svg

<svg width="14" height="14" viewBox="0 0 14 14" fill="none" xmlns="http://www.w3.org/2000/svg">
<g id="calculator">
<path id="Vector" fill-rule="evenodd" clip-rule="evenodd" d="M2.87178 1.61538C2.87178 1.318 3.11286 1.07692 3.41025 1.07692H10.5897C10.8871 1.07692 11.1282 1.318 11.1282 1.61538V12.3846C11.1282 12.682 10.8871 12.9231 10.5897 12.9231H3.41025C3.11286 12.9231 2.87178 12.682 2.87178 12.3846V1.61538ZM3.41025 0C2.51809 0 1.79486 0.723232 1.79486 1.61538V12.3846C1.79486 13.2768 2.51809 14 3.41025 14H10.5897C11.4819 14 12.2051 13.2768 12.2051 12.3846V1.61538C12.2051 0.723232 11.4819 0 10.5897 0H3.41025ZM4.48717 2.51282H9.51281C9.71107 2.51282 9.87178 2.67354 9.87178 2.87179V3.94872C9.87178 4.14697 9.71107 4.30769 9.51281 4.30769H4.48717C4.28891 4.30769 4.12819 4.14697 4.12819 3.94872V2.87179C4.12819 2.67354 4.28891 2.51282 4.48717 2.51282ZM8.79486 5.38462H9.51281C9.71107 5.38462 9.87178 5.54533 9.87178 5.74359V6.46154C9.87178 6.65979 9.71107 6.82051 9.51281 6.82051H8.79486C8.59661 6.82051 8.43589 6.65979 8.43589 6.46154V5.74359C8.43589 5.54533 8.59661 5.38462 8.79486 5.38462ZM5.20512 5.38462H4.48717C4.28891 5.38462 4.12819 5.54533 4.12819 5.74359V6.46154C4.12819 6.65979 4.28891 6.82051 4.48717 6.82051H5.20512C5.40337 6.82051 5.56409 6.65979 5.56409 6.46154V5.74359C5.56409 5.54533 5.40337 5.38462 5.20512 5.38462ZM6.64101 5.38462H7.35896C7.55722 5.38462 7.71794 5.54533 7.71794 5.74359V6.46154C7.71794 6.65979 7.55722 6.82051 7.35896 6.82051H6.64101C6.44276 6.82051 6.28204 6.65979 6.28204 6.46154V5.74359C6.28204 5.54533 6.44276 5.38462 6.64101 5.38462ZM9.51281 7.71795H8.79486C8.59661 7.71795 8.43589 7.87867 8.43589 8.07692V8.79487C8.43589 8.99313 8.59661 9.15385 8.79486 9.15385H9.51281C9.71107 9.15385 9.87178 8.99313 9.87178 8.79487V8.07692C9.87178 7.87867 9.71107 7.71795 9.51281 7.71795ZM4.48717 7.71795H5.20512C5.40337 7.71795 5.56409 7.87867 5.56409 8.07692V8.79487C5.56409 8.99313 5.40337 9.15385 5.20512 9.15385H4.48717C4.28891 9.15385 4.12819 8.99313 4.12819 8.79487V8.07692C4.12819 7.87867 4.28891 7.71795 4.48717 7.71795ZM7.35896 7.71795H6.64101C6.44276 7.71795 6.28204 7.87867 6.28204 8.07692V8.79487C6.28204 8.99313 6.44276 9.15385 6.64101 9.15385H7.35896C7.55722 9.15385 7.71794 8.99313 7.71794 8.79487V8.07692C7.71794 7.87867 7.55722 7.71795 7.35896 7.71795ZM8.79486 10.0513H9.51281C9.71107 10.0513 9.87178 10.212 9.87178 10.4103V11.1282C9.87178 11.3265 9.71107 11.4872 9.51281 11.4872H8.79486C8.59661 11.4872 8.43589 11.3265 8.43589 11.1282V10.4103C8.43589 10.212 8.59661 10.0513 8.79486 10.0513ZM7.35896 10.0513H4.48717C4.28891 10.0513 4.12819 10.212 4.12819 10.4103V11.1282C4.12819 11.3265 4.28891 11.4872 4.48717 11.4872H7.35896C7.55722 11.4872 7.71794 11.3265 7.71794 11.1282V10.4103C7.71794 10.212 7.55722 10.0513 7.35896 10.0513Z" fill="black"/>
</g>
</svg>

<svg xmlns="http://www.w3.org/2000/svg" fill="none" viewBox="0 0 14 14"><path fill="#000" fill-rule="evenodd" d="M2.872 1.615c0-.297.24-.538.538-.538h7.18c.297 0 .538.241.538.538v10.77a.54.54 0 0 1-.538.538H3.41a.54.54 0 0 1-.538-.538zM3.41 0c-.892 0-1.615.723-1.615 1.615v10.77c0 .892.723 1.615 1.615 1.615h7.18c.892 0 1.615-.723 1.615-1.615V1.615C12.205.723 11.482 0 10.59 0zm1.077 2.513h5.026c.198 0 .359.16.359.359v1.077c0 .198-.16.359-.36.359H4.488a.36.36 0 0 1-.359-.36V2.873c0-.198.16-.36.36-.36m4.308 2.872h.718c.198 0 .359.16.359.359v.718c0 .198-.16.359-.36.359h-.717a.36.36 0 0 1-.36-.36v-.717c0-.199.162-.36.36-.36m-3.59 0h-.718a.36.36 0 0 0-.359.359v.718c0 .198.16.359.36.359h.717c.198 0 .36-.161.36-.36v-.717a.36.36 0 0 0-.36-.36m1.436 0h.718c.198 0 .359.16.359.359v.718c0 .198-.16.359-.359.359h-.718a.36.36 0 0 1-.359-.36v-.717c0-.199.16-.36.359-.36m2.872 2.333h-.718a.36.36 0 0 0-.36.359v.718c0 .198.162.359.36.359h.718c.198 0 .359-.16.359-.36v-.717a.36.36 0 0 0-.36-.359m-5.026 0h.718c.198 0 .36.16.36.359v.718c0 .198-.162.359-.36.359h-.718a.36.36 0 0 1-.359-.36v-.717c0-.198.16-.359.36-.359m2.872 0h-.718a.36.36 0 0 0-.359.359v.718c0 .198.16.359.359.359h.718c.198 0 .359-.16.359-.36v-.717a.36.36 0 0 0-.359-.359m1.436 2.333h.718c.198 0 .359.161.359.36v.717c0 .198-.16.36-.36.36h-.717a.36.36 0 0 1-.36-.36v-.718c0-.198.162-.359.36-.359m-1.436 0H4.487a.36.36 0 0 0-.359.36v.717c0 .198.16.36.36.36h2.871c.198 0 .359-.162.359-.36v-.718a.36.36 0 0 0-.359-.359" clip-rule="evenodd"/></svg>
